!!!OTL: EN GOLDSCHMED SAT IN GOODER ROH
!!!ARE: Europa, Mitteleuropa, Deutschland, Brandenburg
!!!SCT: Z0137
!!!YEM: Copyright 1995, estate of Helmut Schaffrath.
**kern
*ICvox
*Ivox
!! Mixed meters:  2/4; 4/4
*M2/4
*k[b-]
*F:
{8c
=1
8f
8f
8f
8f
=2
8e
8d
8c}
{8c
=3
4f
4cc
=4
4a
4f
=5
8g
8g
8e}
{8e
=6
8f
8f
8d
8d
=7
8e
8e
8c}
{8c
=8
8d
8d
8e
8e
=9
4f}
{4cc
=10
8a
8f
8g
8e
=11
2f}
=12
{2f
=13
*M4/4
2g
4f
4f
=14
2e
2f
=15
2g
2a
=16
*M2/4
2f}
=17
{2g
=18
*M4/4
2g
2a
=19
2b-
4a
4g
=20
2f
2g
=21
*M2/4
2a}
=22
{2f
=23
*M4/4
2g
2g
=24
2a
2g
=25
2f
2e
=26
*M2/4
2d}
=27
{2g
=28
*M4/4
2a
2g
=29
2f
4d
4e
=30
2f
2g
=31
2f}
==
!!!AGN: Erzaehlung, lustige Romanze
!!!ONB: ESAC (Essen Associative Code) Database: ZUCCAL
!!!AMT: irregular
!!!AIN: vox
!!!EED: Helmut Schaffrath
!!!EEV: 1.0
*-
